lib/flags/l/IRN.svg

<svg xmlns="http://www.w3.org/2000/svg" fill="none" viewBox="0 0 32 24"><mask id="IRN_svg__a" width="32" height="24" x="0" y="0" mask-type="alpha" maskUnits="userSpaceOnUse"><path fill="#fff" d="M0 0H32V24H0z"/></mask><g mask="url(#IRN_svg__a)"><path fill="#F7FCFF" fill-rule="evenodd" d="M0 0V24H32V0H0Z" clip-rule="evenodd"/><mask id="IRN_svg__b" width="32" height="24" x="0" y="0" mask-type="alpha" maskUnits="userSpaceOnUse"><path fill="#fff" fill-rule="evenodd" d="M0 0V24H32V0H0Z" clip-rule="evenodd"/></mask><g fill-rule="evenodd" clip-rule="evenodd" mask="url(#IRN_svg__b)"><path fill="#5EAA22" d="M0 0V8H32V0H0Z"/><path fill="#E31D1C" d="M0 16V24H32V16H0Z"/><path fill="#F7FCFF" d="M4.60068 16.392V17.0258H2.26991V16.392H4.60068zM.565702 17.9842H.358728V17.731H.813422V18.6181H1.39292V18.6249H1.95436V16.7833H1.59563V17.991H1.54024V16.6873H1.18151V17.9842H1.17215V17.731 16.6873H.813422V17.0971H0V18.6181H.179364.565702V17.9842zM2.06653 18.3395H2.42525V17.7111H2.82525V18.6247H3.95067V17.0782H3.37354V17.7121H3.59194V17.9908H3.18398V17.0772H2.06653V18.3395zM4.35849 17.9842H4.56546V18.6181H4.17912 3.99976V17.0971H4.81318V16.6873H5.17191V17.731 17.9842H5.18127V16.6873H5.54V17.991H5.59539V16.7833H5.95412V18.6249H5.39268V18.6181H4.81318V17.731H4.35849V17.9842zM8.60044 16.392V17.0258H6.26967V16.392H8.60044zM6.06629 18.3395H6.42502V17.7111H6.82501V18.6247H7.95043V17.0782H7.3733V17.7121H7.5917V17.9908H7.18374V17.0772H6.06629V18.3395zM8.42967 17.9842H8.63665V18.6181H8.25031 8.07094V17.0971H8.88437V16.6873H9.2431V17.731 17.9842H9.25246V16.6873H9.61119V17.991H9.66658V16.7833H10.0253V18.6249H9.46386V18.6181H8.88437V17.731H8.42967V17.9842zM12.6716 16.392V17.0258H10.3409V16.392H12.6716zM10.1375 18.3395H10.4962V17.7111H10.8962V18.6247H12.0216V17.0782H11.4445V17.7121H11.6629V17.9908H11.2549V17.0772H10.1375V18.3395zM12.4294 17.9842H12.6364V18.6181H12.2501 12.0707V17.0971H12.8841V16.6873H13.2429V17.731 17.9842H13.2522V16.6873H13.6109V17.991H13.6663V16.7833H14.0251V18.6249H13.4636V18.6181H12.8841V17.731H12.4294V17.9842zM16.6714 16.392V17.0258H14.3406V16.392H16.6714zM14.1372 18.3395H14.496V17.7111H14.896V18.6247H16.0214V17.0782H15.4442V17.7121H15.6626V17.9908H15.2547V17.0772H14.1372V18.3395zM16.4292 17.9842H16.6362V18.6181H16.2498 16.0705V17.0971H16.8839V16.6873H17.2426V17.731 17.9842H17.252V16.6873H17.6107V17.991H17.6661V16.7833H18.0248V18.6249H17.4634V18.6181H16.8839V17.731H16.4292V17.9842zM20.6711 16.392V17.0258H18.3404V16.392H20.6711zM18.137 18.3395H18.4957V17.7111H18.8957V18.6247H20.0211V17.0782H19.444V17.7121H19.6624V17.9908H19.2544V17.0772H18.137V18.3395zM20.5004 17.9842H20.7074V18.6181H20.321 20.1417V17.0971H20.9551V16.6873H21.3138V17.731 17.9842H21.3232V16.6873H21.6819V17.991H21.7373V16.7833H22.096V18.6249H21.5346V18.6181H20.9551V17.731H20.5004V17.9842zM24.7423 16.392V17.0258H22.4116V16.392H24.7423zM22.2082 18.3395H22.5669V17.7111H22.9669V18.6247H24.0923V17.0782H23.5152V17.7121H23.7336V17.9908H23.3256V17.0772H22.2082V18.3395zM24.5716 17.9842H24.7785V18.6181H24.3922 24.2128V17.0971H25.0263V16.6873H25.385V17.731 17.9842H25.3944V16.6873H25.7531V17.991H25.8085V16.7833H26.1672V18.6249H25.6058V18.6181H25.0263V17.731H24.5716V17.9842zM28.8135 16.392V17.0258H26.4827V16.392H28.8135zM26.2794 18.3395H26.6381V17.7111H27.0381V18.6247H28.1635V17.0782H27.5864V17.7121H27.8048V17.9908H27.3968V17.0772H26.2794V18.3395zM28.6427 17.9842H28.8497V18.6181H28.4634 28.284V17.0971H29.0974V16.6873H29.4562V17.731 17.9842H29.4655V16.6873H29.8243V17.991H29.8797V16.7833H30.2384V18.6249H29.6769V18.6181H29.0974V17.731H28.6427V17.9842zM32.8847 16.392V17.0258H30.5539V16.392H32.8847zM30.3505 18.3395H30.7093V17.7111H31.1093V18.6247H32.2347V17.0782H31.6576V17.7121H31.876V17.9908H31.468V17.0772H30.3505V18.3395zM32.6425 17.9842H32.8495V18.6181H32.4631 32.2838V17.0971H33.0972V16.6873H33.4559V17.731 17.9842H33.4653V16.6873H33.824V17.991H33.8794V16.7833H34.2381V18.6249H33.6767V18.6181H33.0972V17.731H32.6425V17.9842zM36.8845 16.392V17.0258H34.5537V16.392H36.8845zM34.3503 18.3395H34.709V17.7111H35.109V18.6247H36.2344V17.0782H35.6573V17.7121H35.8757V17.9908H35.4678V17.0772H34.3503V18.3395zM36.8565 17.9842H37.0635V18.6181H36.6772 36.4978V17.0971H37.3112V16.6873H37.67V17.731 17.9842H37.6793V16.6873H38.0381V17.991H38.0934V16.7833H38.4522V18.6249H37.8907V18.6181H37.3112V17.731H36.8565V17.9842zM41.0985 16.392V17.0258H38.7677V16.392H41.0985zM38.5643 18.3395H38.9231V17.7111H39.3231V18.6247H40.4485V17.0782H39.8713V17.7121H40.0897V17.9908H39.6818V17.0772H38.5643V18.3395zM.484587 5.39197V6.02585H-1.84617V5.39197H.484587zM-3.55039 6.9842H-3.75736V6.73097H-3.30267V7.61808H-2.72317V7.62488H-2.16173V5.7833H-2.52046V6.991H-2.57585V5.6873H-2.93457V6.9842H-2.94394V6.73097 5.6873H-3.30267V6.09709H-4.11609V7.61808H-3.93672-3.55039V6.9842zM-2.04956 7.33952H-1.69083V6.71106H-1.29083V7.62472H-.165423V6.0782H-.742554V6.71208H-.524152V6.99084H-.932106V6.07718H-2.04956V7.33952zM.2424 6.9842H.449373V7.61808H.063036-.116328V6.09709H.697093V5.6873H1.05582V6.73097 6.9842H1.06519V5.6873H1.42391V6.991H1.4793V5.7833H1.83803V7.62488H1.27659V7.61808H.697093V6.73097H.2424V6.9842zM4.48435 5.39197V6.02585H2.15359V5.39197H4.48435zM1.9502 7.33952H2.30893V6.71106H2.70893V7.62472H3.83434V6.0782H3.25721V6.71208H3.47561V6.99084H3.06765V6.07718H1.9502V7.33952zM4.31358 6.9842H4.52056V7.61808H4.13422 3.95486V6.09709H4.76828V5.6873H5.12701V6.73097 6.9842H5.13637V5.6873H5.4951V6.991H5.55049V5.7833H5.90922V7.62488H5.34777V7.61808H4.76828V6.73097H4.31358V6.9842zM8.55553 5.39197V6.02585H6.22477V5.39197H8.55553zM6.02138 7.33952H6.38011V6.71106H6.78011V7.62472H7.90552V6.0782H7.32839V6.71208H7.54679V6.99084H7.13884V6.07718H6.02138V7.33952zM8.31334 6.9842H8.52032V7.61808H8.13398 7.95462V6.09709H8.76804V5.6873H9.12677V6.73097 6.9842H9.13613V5.6873H9.49486V6.991H9.55025V5.7833H9.90898V7.62488H9.34753V7.61808H8.76804V6.73097H8.31334V6.9842zM12.5553 5.39197V6.02585H10.2245V5.39197H12.5553zM10.0211 7.33952H10.3799V6.71106H10.7799V7.62472H11.9053V6.0782H11.3282V6.71208H11.5466V6.99084H11.1386V6.07718H10.0211V7.33952zM12.3131 6.9842H12.5201V7.61808H12.1337 11.9544V6.09709H12.7678V5.6873H13.1265V6.73097 6.9842H13.1359V5.6873H13.4946V6.991H13.55V5.7833H13.9087V7.62488H13.3473V7.61808H12.7678V6.73097H12.3131V6.9842zM16.5551 5.39197V6.02585H14.2243V5.39197H16.5551zM14.0209 7.33952H14.3796V6.71106H14.7796V7.62472H15.905V6.0782H15.3279V6.71208H15.5463V6.99084H15.1384V6.07718H14.0209V7.33952zM16.3843 6.9842H16.5913V7.61808H16.2049 16.0256V6.09709H16.839V5.6873H17.1977V6.73097 6.9842H17.2071V5.6873H17.5658V6.991H17.6212V5.7833H17.9799V7.62488H17.4185V7.61808H16.839V6.73097H16.3843V6.9842zM20.6262 5.39197V6.02585H18.2955V5.39197H20.6262zM18.0921 7.33952H18.4508V6.71106H18.8508V7.62472H19.9762V6.0782H19.3991V6.71208H19.6175V6.99084H19.2095V6.07718H18.0921V7.33952zM20.4555 6.9842H20.6624V7.61808H20.2761 20.0967V6.09709H20.9102V5.6873H21.2689V6.73097 6.9842H21.2783V5.6873H21.637V6.991H21.6924V5.7833H22.0511V7.62488H21.4897V7.61808H20.9102V6.73097H20.4555V6.9842zM24.6974 5.39197V6.02585H22.3667V5.39197H24.6974zM22.1633 7.33952H22.522V6.71106H22.922V7.62472H24.0474V6.0782H23.4703V6.71208H23.6887V6.99084H23.2807V6.07718H22.1633V7.33952zM24.5267 6.9842H24.7336V7.61808H24.3473 24.1679V6.09709H24.9814V5.6873H25.3401V6.73097 6.9842H25.3494V5.6873H25.7082V6.991H25.7636V5.7833H26.1223V7.62488H25.5608V7.61808H24.9814V6.73097H24.5267V6.9842zM28.7686 5.39197V6.02585H26.4378V5.39197H28.7686zM26.2345 7.33952H26.5932V6.71106H26.9932V7.62472H28.1186V6.0782H27.5415V6.71208H27.7599V6.99084H27.3519V6.07718H26.2345V7.33952zM28.5264 6.9842H28.7334V7.61808H28.3471 28.1677V6.09709H28.9811V5.6873H29.3398V6.73097 6.9842H29.3492V5.6873H29.7079V6.991H29.7633V5.7833H30.1221V7.62488H29.5606V7.61808H28.9811V6.73097H28.5264V6.9842zM32.7684 5.39197V6.02585H30.4376V5.39197H32.7684zM30.2342 7.33952H30.5929V6.71106H30.9929V7.62472H32.1184V6.0782H31.5412V6.71208H31.7596V6.99084H31.3517V6.07718H30.2342V7.33952zM32.7405 6.9842H32.9474V7.61808H32.5611 32.3817V6.09709H33.1951V5.6873H33.5539V6.73097 6.9842H33.5632V5.6873H33.922V6.991H33.9774V5.7833H34.3361V7.62488H33.7746V7.61808H33.1951V6.73097H32.7405V6.9842zM36.9824 5.39197V6.02585H34.6516V5.39197H36.9824zM34.4482 7.33952H34.807V6.71106H35.207V7.62472H36.3324V6.0782H35.7553V6.71208H35.9737V6.99084H35.5657V6.07718H34.4482V7.33952z"/><path fill="#E31D1C" d="M14.6063 8.25C14.6063 8.25 15.0336 8.475 15.471 8.475C15.9084 8.475 16.3485 8.25 16.3485 8.25V8.55C16.3485 8.55 15.868 8.775 15.4425 8.775C15.017 8.775 14.6063 8.55 14.6063 8.55V8.25ZM11.4564 11.7906C11.4564 10.0126 13.8984 8.85 13.8984 8.85C13.8984 8.85 12.487 9.60621 12.487 11.7161C12.487 13.826 13.2197 14.7397 13.2197 14.7397C13.2197 14.7397 11.4564 13.5686 11.4564 11.7906ZM19.6941 11.6925C19.6941 9.91448 17.2544 8.85 17.2544 8.85C17.2544 8.85 18.6658 9.60621 18.6658 11.7161C18.6658 13.826 17.9331 14.7397 17.9331 14.7397C17.9331 14.7397 19.6941 13.4705 19.6941 11.6925ZM13.1235 12.1776C13.0305 10.402 14.5075 8.81052 14.5075 8.81052C14.5075 8.81052 13.9699 9.54185 14.0804 11.6488C14.1183 12.3723 14.4032 13.4486 14.7622 14.0832V8.925H16.2622V14.1279C16.6217 13.5352 16.8987 12.5246 16.9372 11.7906C17.0476 9.68361 16.5358 8.81052 16.5358 8.81052C16.5358 8.81052 18.0128 10.402 17.9198 12.1776C17.8644 13.2351 17.0507 14.3534 16.4016 15.0851C16.717 15.1554 17.1397 15.2411 17.7209 15.3559C17.7333 15.4202 17.6038 15.4172 17.3465 15.4113C17.0624 15.4047 16.6224 15.3946 16.0457 15.4675C15.7805 15.7393 15.5959 15.9004 15.5959 15.9004C15.5959 15.9004 15.5667 15.861 15.5217 15.8064C15.4766 15.861 15.4474 15.9004 15.4474 15.9004C15.4474 15.9004 15.2628 15.7393 14.9977 15.4675C14.4209 15.3946 13.981 15.4047 13.6969 15.4113C13.4395 15.4172 13.31 15.4202 13.3224 15.3559C13.9036 15.2411 14.3263 15.1554 14.6417 15.0851C13.9926 14.3534 13.1789 13.2351 13.1235 12.1776Z"/></g></g></svg>

<svg xmlns="http://www.w3.org/2000/svg" fill="none" viewBox="0 0 32 24"><mask id="IRN_svg__a" width="32" height="24" x="0" y="0" maskUnits="userSpaceOnUse"><path fill="#fff" d="M0 0h32v24H0z"/></mask><g mask="url(#IRN_svg__a)"><path fill="#F7FCFF" fill-rule="evenodd" d="M0 0v24h32V0H0z" clip-rule="evenodd"/><mask id="IRN_svg__b" width="32" height="24" x="0" y="0" maskUnits="userSpaceOnUse"><path fill="#fff" fill-rule="evenodd" d="M0 0v24h32V0H0z" clip-rule="evenodd"/></mask><g fill-rule="evenodd" clip-rule="evenodd" mask="url(#IRN_svg__b)"><path fill="#5EAA22" d="M0 0v8h32V0H0z"/><path fill="#E31D1C" d="M0 16v8h32v-8H0z"/><path fill="#F7FCFF" d="M4.6 16.392v.634H2.27v-.634H4.6zM.567 17.984H.359v-.253h.454v.887h.58v.007h.561v-1.842h-.358v1.208H1.54v-1.304h-.358v1.297h-.01v-1.297H.813v.41H0v1.521h.566v-.634zm1.5.355h.36v-.628h.4v.914H3.95v-1.547h-.577v.634h.218v.279h-.408v-.914H2.067v1.262zm2.292-.355h.207v.634H4v-1.521h.814v-.41h.359v1.297h.01v-1.297h.358v1.304h.055v-1.208h.36v1.842h-.562v-.007h-.58v-.887h-.455v.253zM8.6 16.392v.634H6.27v-.634H8.6zM6.066 18.34h.359v-.629h.4v.914H7.95v-1.547h-.577v.634h.219v.279h-.408v-.914H6.066v1.262zm2.364-.356h.207v.634H8.07v-1.521h.814v-.41h.36v1.297h.008v-1.297h.36v1.304h.055v-1.208h.358v1.842h-.561v-.007h-.58v-.887H8.43v.253zm4.242-1.592v.634H10.34v-.634h2.33zm-2.535 1.948h.36v-.629h.4v.914h1.125v-1.547h-.578v.634h.219v.279h-.408v-.914h-1.118v1.262zm2.292-.356h.207v.634h-.566v-1.521h.814v-.41h.359v1.297h.01v-1.297h.358v1.304h.055v-1.208h.36v1.842h-.562v-.007h-.58v-.887h-.455v.253zm4.242-1.592v.634h-2.33v-.634h2.33zm-2.534 1.948h.359v-.629h.4v.914h1.125v-1.547h-.577v.634h.219v.279h-.408v-.914h-1.118v1.262zm2.292-.356h.207v.634h-.566v-1.521h.814v-.41h.359v1.297h.009v-1.297h.359v1.304h.055v-1.208h.359v1.842h-.562v-.007h-.58v-.887h-.454v.253zm4.242-1.592v.634h-2.33v-.634h2.33zm-2.534 1.948h.359v-.629h.4v.914h1.125v-1.547h-.577v.634h.218v.279h-.408v-.914h-1.117v1.262zm2.363-.356h.207v.634h-.566v-1.521h.814v-.41h.359v1.297h.01v-1.297h.358v1.304h.055v-1.208h.359v1.842h-.561v-.007h-.58v-.887H20.5v.253zm4.242-1.592v.634h-2.33v-.634h2.33zm-2.534 1.948h.359v-.629h.4v.914h1.125v-1.547h-.577v.634h.219v.279h-.408v-.914h-1.118v1.262zm2.364-.356h.207v.634h-.567v-1.521h.814v-.41h.359v1.297h.01v-1.297h.358v1.304h.055v-1.208h.36v1.842h-.562v-.007h-.58v-.887h-.454v.253zm4.242-1.592v.634h-2.331v-.634h2.33zm-2.535 1.948h.36v-.629h.4v.914h1.124v-1.547h-.577v.634h.219v.279h-.408v-.914h-1.118v1.262zm2.364-.356h.207v.634h-.566v-1.521h.813v-.41h.36v1.297h.008v-1.297h.36v1.304h.055v-1.208h.358v1.842h-.561v-.007h-.58v-.887h-.454v.253zm4.242-1.592v.634h-2.331v-.634h2.33zM30.35 18.34h.358v-.629h.4v.914h1.126v-1.547h-.577v.634h.218v.279h-.408v-.914H30.35v1.262zm2.291-.356h.207v.634h-.565v-1.521h.814v-.41h.359v1.297h.01v-1.297h.358v1.304h.055v-1.208h.36v1.842h-.562v-.007h-.58v-.887h-.455v.253zm4.242-1.592v.634h-2.33v-.634h2.33zM34.35 18.34h.359v-.629h.4v.914h1.125v-1.547h-.577v.634h.219v.279h-.408v-.914H34.35v1.262zm2.506-.356h.207v.634h-.566v-1.521h.814v-.41h.359v1.297h.01v-1.297h.358v1.304h.055v-1.208h.36v1.842h-.562v-.007h-.58v-.887h-.455v.253zm4.242-1.592v.634h-2.33v-.634h2.33zm-2.534 1.948h.36v-.629h.4v.914h1.125v-1.547h-.578v.634h.219v.279h-.408v-.914h-1.118v1.262zM.485 5.392v.634h-2.331v-.634h2.33zM-3.55 6.984h-.207v-.253h.454v.887h.58v.007h.561V5.783h-.358v1.208h-.056V5.687h-.359v1.297h-.009V5.687h-.359v.41h-.813v1.521h.566v-.634zm1.5.355h.36v-.628h.4v.914h1.125V6.078h-.578v.634h.219v.279h-.408v-.914H-2.05V7.34zm2.292-.355H.45v.634h-.567V6.097h.814v-.41h.359v1.297h.01V5.687h.358v1.304h.055V5.783h.359v1.842h-.561v-.007h-.58v-.887H.242v.253zm4.242-1.592v.634h-2.33v-.634h2.33zM1.95 7.339h.359v-.628h.4v.914h1.125V6.078h-.577v.634h.219v.279h-.408v-.914H1.95V7.34zm2.364-.355h.207v.634h-.567V6.097h.814v-.41h.359v1.297h.01V5.687h.358v1.304h.055V5.783h.36v1.842h-.562v-.007h-.58v-.887h-.454v.253zm4.242-1.592v.634H6.225v-.634h2.33zM6.02 7.339h.36v-.628h.4v.914h1.125V6.078h-.578v.634h.219v.279h-.408v-.914H6.02V7.34zm2.292-.355h.207v.634h-.565V6.097h.814v-.41h.359v1.297h.01V5.687h.358v1.304h.055V5.783h.359v1.842h-.561v-.007h-.58v-.887h-.455v.253zm4.242-1.592v.634h-2.33v-.634h2.33zM10.02 7.339h.359v-.628h.4v.914h1.125V6.078h-.577v.634h.219v.279h-.408v-.914H10.02V7.34zm2.292-.355h.207v.634h-.565V6.097h.814v-.41h.358v1.297h.01V5.687h.359v1.304h.055V5.783h.359v1.842h-.562v-.007h-.58v-.887h-.454v.253zm4.242-1.592v.634h-2.33v-.634h2.33zM14.02 7.339h.359v-.628h.4v.914h1.125V6.078h-.577v.634h.218v.279h-.408v-.914H14.02V7.34zm2.363-.355h.207v.634h-.565V6.097h.814v-.41h.359v1.297h.01V5.687h.358v1.304h.055V5.783h.359v1.842h-.561v-.007h-.58v-.887h-.455v.253zm4.242-1.592v.634h-2.33v-.634h2.33zm-2.534 1.947h.359v-.628h.4v.914h1.125V6.078H19.4v.634h.218v.279h-.408v-.914h-1.117V7.34zm2.364-.355h.206v.634h-.565V6.097h.814v-.41h.359v1.297h.01V5.687h.358v1.304h.055V5.783h.36v1.842h-.562v-.007h-.58v-.887h-.454v.253zm4.241-1.592v.634h-2.33v-.634h2.33zm-2.534 1.947h.359v-.628h.4v.914h1.125V6.078h-.577v.634h.219v.279h-.408v-.914h-1.118V7.34zm2.364-.355h.207v.634h-.567V6.097h.814v-.41h.36v1.297h.008V5.687h.36v1.304h.055V5.783h.358v1.842h-.561v-.007h-.58v-.887h-.454v.253zm4.242-1.592v.634h-2.331v-.634h2.33zm-2.534 1.947h.358v-.628h.4v.914h1.126V6.078h-.578v.634h.219v.279h-.408v-.914h-1.117V7.34zm2.291-.355h.207v.634h-.565V6.097h.814v-.41h.359v1.297h.01V5.687h.358v1.304h.055V5.783h.36v1.842h-.562v-.007h-.58v-.887h-.455v.253zm4.242-1.592v.634h-2.33v-.634h2.33zm-2.534 1.947h.359v-.628h.4v.914h1.125V6.078h-.577v.634h.219v.279h-.408v-.914h-1.118V7.34zm2.506-.355h.207v.634h-.565V6.097h.814v-.41h.359v1.297h.01V5.687h.358v1.304h.055V5.783h.36v1.842h-.562v-.007h-.58v-.887h-.455v.253zm4.242-1.592v.634h-2.33v-.634h2.33zm-2.534 1.947h.359v-.628h.4v.914h1.125V6.078h-.577v.634h.219v.279h-.408v-.914h-1.118V7.34z"/><path fill="#E31D1C" d="M14.606 8.25s.428.225.865.225.878-.225.878-.225v.3s-.481.225-.906.225c-.426 0-.837-.225-.837-.225v-.3zm-3.15 3.54c0-1.777 2.442-2.94 2.442-2.94s-1.411.756-1.411 2.866c0 2.11.733 3.024.733 3.024s-1.764-1.171-1.764-2.95zm8.238-.097c0-1.779-2.44-2.843-2.44-2.843s1.412.756 1.412 2.866c0 2.11-.733 3.024-.733 3.024s1.761-1.27 1.761-3.047zm-6.57.485c-.094-1.776 1.383-3.367 1.383-3.367s-.537.73-.427 2.838c.038.723.323 1.8.682 2.434V8.925h1.5v5.203c.36-.593.637-1.603.675-2.337.11-2.107-.401-2.98-.401-2.98s1.477 1.591 1.384 3.367c-.056 1.057-.87 2.175-1.518 2.907.315.07.738.156 1.319.27.012.065-.117.062-.375.056a8.227 8.227 0 00-1.3.056c-.265.272-.45.433-.45.433l-.074-.094-.075.094s-.184-.16-.45-.433a8.228 8.228 0 00-1.3-.056c-.257.006-.387.01-.375-.055.582-.115 1.004-.2 1.32-.27-.65-.733-1.463-1.85-1.518-2.908z"/></g></g></svg>
